X:117
T:Martha's Waltz
R:waltz
C:Bruce Osborne  --  Apr. 1998
Z:abc by bosborne@kos.net
M:3/4
L:1/8
K:F
A,B, _C|C3 F Ac|a f2 A cf|e3 G GA|B3 A GF|\
E3 F ED|C3 D CB,|A,2 A,B, CD|C3 A, B,_C|\
C3 F Ac|a f2 A cf|e3 G GA|B3 A GF|\
E3 F ED|C2 A2 G2|F3 E FG|F3
|:c Ac|a f2 c Ac|e d2 G GA|B3 c dc|A3 c Ac|\
a f2 c Ac|e d2 g gf|e3 c ag|[A3 f3]:|
